assets/img/braze_icons/browser.svg

<svg fill="none" height="24" viewBox="0 0 24 24" width="24" xmlns="http://www.w3.org/2000/svg"><g fill="#801ed7"><path d="m17.2413 2h-10.4826c-.80496-.00001-1.46933-.00002-2.01052.04419-.5621.04593-1.0788.14449-1.56414.39178-.75265.3835-1.36457.99542-1.74806 1.74807-.24729.48533-.34586 1.00204-.39178 1.56414-.01773.21691-.02889.4343-.0358.65193-.017223.54209-.025835.81314.08057 1.03396.09166.19025.25118.35491.43842.45257.21733.11336.50243.11336 1.07261.11336h18.8c.5702 0 .8553 0 1.0726-.11336.1873-.09766.3468-.26232.4384-.45257.1064-.22082.0978-.49187.0806-1.03396-.0069-.21763-.0181-.43502-.0358-.65193-.0459-.5621-.1445-1.0788-.3918-1.56414-.3835-.75265-.9954-1.36457-1.748-1.74806-.4854-.24729-1.0021-.34586-1.5642-.39178-.5411-.04422-1.2056-.04421-2.0105-.0442z"/><path d="m23 11.6c0-.5601 0-.8401-.109-1.054-.0959-.1882-.2488-.3411-.437-.437-.2139-.109-.4939-.109-1.054-.109h-18.8c-.56005 0-.84008 0-1.05399.109-.18816.0959-.34114.2488-.43701.437-.109.2139-.109.4939-.109 1.054v4.6413c-.00001.805-.00002 1.4693.0442 2.0105.04592.5621.14449 1.0788.39178 1.5642.38349.7526.99541 1.3645 1.74806 1.748.48534.2473 1.00204.3459 1.56414.3918.54121.0442 1.20559.0442 2.01059.0442h10.48243c.805 0 1.4694 0 2.0106-.0442.5621-.0459 1.0788-.1445 1.5642-.3918.7526-.3835 1.3645-.9954 1.748-1.748.2473-.4854.3459-1.0021.3918-1.5642.0442-.5412.0442-1.2055.0442-2.0105z"/></g></svg>

<svg width="24" height="24" viewBox="0 0 24 24" fill="none" xmlns="http://www.w3.org/2000/svg">
<path d="M17.2413 2H6.7587C5.95374 1.99999 5.28937 1.99998 4.74818 2.04419C4.18608 2.09012 3.66938 2.18868 3.18404 2.43597C2.43139 2.81947 1.81947 3.43139 1.43598 4.18404C1.18869 4.66937 1.09012 5.18608 1.0442 5.74818C1.02647 5.96509 1.01531 6.18248 1.0084 6.40011C0.991177 6.9422 0.982565 7.21325 1.08897 7.43407C1.18063 7.62432 1.34015 7.78898 1.52739 7.88664C1.74472 8 2.02982 8 2.6 8H21.4C21.9702 8 22.2553 8 22.4726 7.88664C22.6599 7.78898 22.8194 7.62432 22.911 7.43407C23.0174 7.21325 23.0088 6.9422 22.9916 6.40011C22.9847 6.18248 22.9735 5.96509 22.9558 5.74818C22.9099 5.18608 22.8113 4.66938 22.564 4.18404C22.1805 3.43139 21.5686 2.81947 20.816 2.43598C20.3306 2.18869 19.8139 2.09012 19.2518 2.0442C18.7107 1.99998 18.0462 1.99999 17.2413 2Z" fill="#801ED7"/>
<path d="M23 11.6C23 11.0399 23 10.7599 22.891 10.546C22.7951 10.3578 22.6422 10.2049 22.454 10.109C22.2401 10 21.9601 10 21.4 10H2.6C2.03995 10 1.75992 10 1.54601 10.109C1.35785 10.2049 1.20487 10.3578 1.109 10.546C1 10.7599 1 11.0399 1 11.6V16.2413C0.99999 17.0463 0.99998 17.7106 1.0442 18.2518C1.09012 18.8139 1.18869 19.3306 1.43598 19.816C1.81947 20.5686 2.43139 21.1805 3.18404 21.564C3.66938 21.8113 4.18608 21.9099 4.74818 21.9558C5.28939 22 5.95377 22 6.75877 22L17.2412 22C18.0462 22 18.7106 22 19.2518 21.9558C19.8139 21.9099 20.3306 21.8113 20.816 21.564C21.5686 21.1805 22.1805 20.5686 22.564 19.816C22.8113 19.3306 22.9099 18.8139 22.9558 18.2518C23 17.7106 23 17.0463 23 16.2413V11.6Z" fill="#801ED7"/>
</svg>
